assets/images/icon-user.svg

<svg width="18" height="20" viewBox="0 0 18 20" fill="none" xmlns="http://www.w3.org/2000/svg">
<path fill-rule="evenodd" clip-rule="evenodd" d="M8.9963 0.450001C11.878 0.450001 14.2281 2.80016 14.2281 5.68182C14.2281 8.56348 11.878 10.9136 8.9963 10.9136C6.11464 10.9136 3.76448 8.56348 3.76448 5.68182C3.76448 2.80016 6.11464 0.450001 8.9963 0.450001ZM8.9963 10.8136C13.7807 10.8136 17.6827 14.7156 17.6327 19.55L15.8554 19.5C15.8554 15.702 12.7943 12.6409 8.9963 12.6409C5.19827 12.6409 2.13721 15.702 2.08721 19.55L0.309937 19.5C0.309937 14.7156 4.21194 10.8136 8.9963 10.8136ZM8.9963 2.27727C7.10772 2.27727 5.59175 3.79324 5.59175 5.68182C5.59175 7.5704 7.10772 9.08636 8.9963 9.08636C10.8849 9.08636 12.4008 7.5704 12.4008 5.68182C12.4008 3.79324 10.8849 2.27727 8.9963 2.27727Z" fill="#c31218"/>
</svg>

<svg width="18" height="20" fill="none" xmlns="http://www.w3.org/2000/svg"><path fill-rule="evenodd" clip-rule="evenodd" d="M8.996.45a5.242 5.242 0 0 1 5.232 5.232 5.242 5.242 0 0 1-5.232 5.232 5.242 5.242 0 0 1-5.232-5.232A5.242 5.242 0 0 1 8.996.45zm0 10.364a8.64 8.64 0 0 1 8.637 8.736l-1.778-.05a6.847 6.847 0 0 0-6.859-6.86c-3.798 0-6.859 3.062-6.909 6.91L.31 19.5c0-4.784 3.902-8.686 8.686-8.686zm0-8.537a3.394 3.394 0 0 0-3.404 3.405 3.394 3.394 0 0 0 3.404 3.404 3.394 3.394 0 0 0 3.405-3.404 3.394 3.394 0 0 0-3.405-3.405z" fill="#c31218"/></svg>
